!!!COM: Schiørring, Niels
!!!CDT: 1743-1798
!!!OPR@@DA: Choral-Bog
!!!ONM: 33
!!!OTL@@DA: Hvad kan os komme til for Nød
**kern	**fb	**kern	**kern	**kern	**kern	**kern	**kern	**kern
*part6	*part6	*part6	*part5	*part5	*part4	*part3	*part2	*part1
*staff8	*	*staff7	*staff6	*staff5	*staff4	*staff3	*staff2	*staff1
*clefF4	*	*clefC1	*clefF4	*clefC1	*clefF4	*clefC4	*clefC3	*clefC1
*mclefF4	*	*mclefG2	*mclefF4	*mclefG2	*mclefF4	*mclefGv2	*mclefG2	*mclefG2
*k[f#]	*	*k[f#]	*k[f#]	*k[f#]	*k[f#]	*k[f#]	*k[f#]	*k[f#]
*G:	*	*G:	*G:	*G:	*G:	*G:	*G:	*G:
*M4/4	*	*M4/4	*M4/4	*M4/4	*M4/4	*M4/4	*M4/4	*M4/4
*met(c)	*	*met(c)	*met(c)	*met(c)	*met(c)	*met(c)	*met(c)	*met(c)
*MM180	*	*MM180	*MM180	*MM180	*MM180	*MM180	*MM180	*MM180
*	*above	*	*	*	*	*	*	*
*	*	*	*^	*^	*	*	*	*
=1	=1	=1	=1	=1	=1	=1	=1	=1	=1	=1
2G	.	2g	2B	2G	2g	2d	2G	2B	2d	2g
=2	=2	=2	=2	=2	=2	=2	=2	=2	=2	=2
2B	6	2g	2ryy	2B	2d	2d	2B	2d	2d	2g
2G	.	2b	2B	2G	2b	2d	2G	2d	2g	2b
=3	=3	=3	=3	=3	=3	=3	=3	=3	=3	=3
2D	8	2a	2F#	2D	2a	4d	2D	(4d	2f#	2a
.	7	.	.	.	.	4c	.	4c)	.	.
2E	.	2g	[2G	2E	2g	2B	2E	2B	2g	2g
=4	=4	=4	=4	=4	=4	=4	=4	=4	=4	=4
2C	6 5	2a	2G]	2C	2a	2e	(2C	2e	2g	2a
2D	.	2a	2F#	2D	2a	2d	2D)	2d	2f#	2a
=5	=5	=5	=5	=5	=5	=5	=5	=5	=5	=5
2GG	.	2b	2G	2GG	2b	2d	2GG	2d	2g	2b
2E	.	2g	2B	2E	2g	2e	2E	2B	2g	2g
=6	=6	=6	=6	=6	=6	=6	=6	=6	=6	=6
2D	6 n	2b	2d	2D	2b	2fn	2D	2d	2fn	2b
2C	.	2cc	2G	2C	2cc	2e	2C	2G	2e	2cc
=7	=7	=7	=7	=7	=7	=7	=7	=7	=7	=7
2BB	6	2dd	2G	2BB	2dd	2d	2BB	2G	2d	2dd
2E	.	2b	[2G	2E	2b	2e	2E	2B	[2g	2b
=8	=8	=8	=8	=8	=8	=8	=8	=8	=8	=8
2C	6 5	1a	2G]	2C	1a	2e	(2C	(2e	(2g]	1a
2D	.	.	4F#	2D	.	2d	2D)	4d	2f#)	.
.	.	.	4c	.	.	.	.	4c)	.	.
=9	=9	=9	=9	=9	=9	=9	=9	=9	=9	=9
2GG	.	2g	2ryy	2GG	2B	2d	2GG	2B	2g	2g
=10:|!	=10:|!	=10:|!	=10:|!	=10:|!	=10:|!	=10:|!	=10:|!	=10:|!	=10:|!	=10:|!
2GG	.	2b	2ryy	2GG	2d	2g	2GG	2d	2g	2b
=11	=11	=11	=11	=11	=11	=11	=11	=11	=11	=11
2G	.	2b	2.d	2G	2b	2g	2G	2d	2g	2b
2D	8	2a	.	2D	2a	[2f#	2D	(4d	[2f#	2a
.	7	.	4c	.	.	.	.	4c)	.	.
=12	=12	=12	=12	=12	=12	=12	=12	=12	=12	=12
2E	9	2g	2B	2E	2g	4f#]	2E	2B	(4f#]	2g
.	8	.	.	.	.	2e	.	.	2e)	.
[2BB	4	2f#	2B	[2BB	2f#	.	[2BB	2B	.	2f#
.	3	.	.	.	.	4d	.	.	4d	.
=13	=13	=13	=13	=13	=13	=13	=13	=13	=13	=13
4BB]	6	2g	4G	4BB]	2g	2.d	(4BB]	(4G	[2d	2g
4GG	.	.	4ryy	4GG	.	.	4GG)	4B)	.	.
2AA	4	2e	4A	2AA	2e	.	2AA	(4A	(4d]	2e
.	#	.	4G	.	.	4c#X	.	4G)	4c#X)	.
=14	=14	=14	=14	=14	=14	=14	=14	=14	=14	=14
2D	.	2d	2F#	2D	2d	2A	2D	2F#	2d	2d
2C	2	2d	2F#	2Cni	2d	2A	2C	2F#	2A	2d
=15	=15	=15	=15	=15	=15	=15	=15	=15	=15	=15
2BB	6	2g	2G	2BB	2g	2d	2BB	2G	2d	2g
2E	.	2g	2B	2E	2g	2e	2E	2B	2e	2g
=16	=16	=16	=16	=16	=16	=16	=16	=16	=16	=16
2C	6 5	2g	2A	2C	2g	2e	2C	2A	2e	2g
4D	.	2f#	2A	4D	2f#	2d	(4D	2A	2d	2f#
4C	4 2	.	.	4C	.	.	4C)	.	.	.
=17	=17	=17	=17	=17	=17	=17	=17	=17	=17	=17
2BB	6	2g	2.G	2BB	2g	2d	2BB	2d	(4d	2g
.	.	.	.	.	.	.	.	.	2g)	.
2AA	7	2a	.	2AA	2a	2c	2AA	2c	.	2a
.	6	.	4F#	.	.	.	.	.	4f#	.
=18	=18	=18	=18	=18	=18	=18	=18	=18	=18	=18
2GG	.	2b	2G	2GG	2b	2d	2GG	2d	2g	2b
2B	6	2g	2B	2B	2g	2d	2B	2d	2g	2g
=19	=19	=19	=19	=19	=19	=19	=19	=19	=19	=19
2G	.	2b	2d	2G	2b	1g	2G	2d	2g	2b
2E	6	2cc	2c	2E	2cc	.	2E	2e	2g	2cc
=20	=20	=20	=20	=20	=20	=20	=20	=20	=20	=20
*	*	*	*	*	*	*^	*	*	*	*
2F#	6	2dd	2A	2F#	2dd	2d	2a/	2F#	2d	2a	2dd
*	*	*	*	*	*	*v	*v	*	*	*	*
2G	.	2b	[2G	2G	2b	2d	2G	2d	[2g	2b
=21	=21	=21	=21	=21	=21	=21	=21	=21	=21	=21
2C	6 5	1a	2G]	2C	1a	2e	(2C	(2e	(2g]	1a
2D	.	.	4F#	2D	.	2d	2D)	4d	2f#)	.
.	.	.	4c	.	.	.	.	4c)	.	.
=22	=22	=22	=22	=22	=22	=22	=22	=22	=22	=22
2GG	.	2g	2ryy	2GG	2B	2d	2GG	2B	2g	2g
*	*	*	*v	*v	*	*	*	*	*	*
*	*	*	*	*v	*v	*	*	*	*
==	==	==	==	==	==	==	==	==
*-	*-	*-	*-	*-	*-	*-	*-	*-
!!!system-decoration: {(s1,s2,s3,s4)}{(s5,s6)}{(s7,s8)}
!!!RDF**kern: i = editorial accidental
!!!RDF**kern: > = above
!!!RDF**kern: < = below
!!!AGN: chorale
!!!EED: Derek Remeš
!!!EED2: Victor Phan
!!!END: 2023/11/28
!!!ENC: Wolfgang Drescher
!!!EEV: 2023/12/10
!!!title: @{ONM}. @{OTL}
!!!verovio: mnumInterval 1